X:1
T:The Day Is Nigh
T:The Day Is Nigh
T:George B. C. Thomas
T:Jabez G. Bickerton, 1900
T:Public Domain Courtesy of the Cyber Hymnal™
T:Public Domain Courtesy of the Cyber Hymnal™
C:George B. C. Thomas
Z:Public Domain
Z:Courtesy of the Cyber Hymnal™
%%score ( 1 2 ) ( 3 4 )
L:1/8
Q:1/4=95
M:4/4
K:C
V:1 treble 
V:2 treble 
V:3 bass 
V:4 bass 
V:1
 [CE]>[DF] | [EG]>[EG] [^D^F]>[DA] [EG]2 [Ec]>[EB] | [Fd]>[Fc] [FB]>[Gc] [FA]2 [Ac]>[FA] | %3
w: 1.~There are|ma- ny calls to war, There are|ban- ners wav- ing high, Zi- on’s|
w: 2.~“Wea- pon|formed a- gainst the Church Shall not|pros- per,” saith the Lord, “’Gainst the|
w: 3.~Zi- on|lo- ved of the Lord, Lift thy|voice and cry a- loud, For the|
 [EG]>[EG] [^D^F]>[EG] [Gc]2 [Ge]2 | [Gd]6 [CE]>[DF] | [EG]>[EG] [^D^F]>[DA] [EG]2 [Ec]>[EB] | %6
w: hosts, a- rise from far and|near! Throng ye|to the bat- tle front, Halt ye|
w: light that shin- eth as the|sun”; But the|glor- ious Church of God, On- ward|
w: day of tri- umph soon shall|come. Soon the|night will pass a- way, Soon will|
 [Fd]>[Fc] [FA]>[Fc] [EG]2 [Ec]>[Fd] | [Ge]>[Fd] [Ec]>[Ge] [Fd]2 B2 | [Ec]6 z2 || %9
w: not up- on the way, For the|King of Light shall soon ap-|pear!|
w: moves from day to day, And will|pros- per while the ag- es|run.|
w: dawn the per- fect day, And the|ran- somed shall be ga- thered|home.|
"^Refrain" [EG]4- [EG]>[Ec] [EB]>[FA] | [FB]6 [FB]>[Fc] | [Fd]>[Fc] [FB]>[FA] G2 [B,F]2 | %12
w: On- * ward to the|fray, Trust- ing|God to help us day by|
w: |||
w: |||
 [CE]6 [EG]>[Ec] | [Ge]4- [Ge]>[Fd] [Ec]>[DB] | [Fd]6 [Fc]>[FA] | [EG]>[Ec] [Ge]>[Ec] [Fd]2 [Fd]2 | %16
w: day. Ev- er|on- * ward as we|sing, To the|glo- ry of the Lord our|
w: ||||
w: ||||
 [Ec]6 |] %17
w: king.|
w: |
w: |
V:2
 x2 | x8 | x8 | x8 | x8 | x8 | x8 | x6 (DF) | x8 || x8 | x8 | x4 G2 x2 | x8 | x8 | x8 | x8 | x6 |] %17
V:3
 [C,G,]>[C,G,] | [C,C]>[C,C] [C,C]>[C,C] [C,C]2 [C,G,]>[C,G,] | %2
w: ~ ~|~ ~ ~ ~ ~ ~ ~|
 [F,A,]>[F,A,] [F,G,]>[F,A,] [F,C]2 [F,C]>[F,C] | [C,C]>[C,C] [C,C]>[C,C] [E,C]2 [E,C]2 | %4
w: ~ ~ ~ ~ ~ ~ ~|~ ~ ~ ~ ~ ~|
 B,6 [E,G,]>[D,G,] | [C,C]>[C,C] [C,C]>[C,C] [C,C]2 [C,G,]>[C,G,] | %6
w: ~ ~ ~|~ ~ ~ ~ ~ ~ ~|
 [F,A,]>[F,A,] [F,C]>[A,C] C2 [C,G,]>[C,G,] | [C,C]>[C,C] [C,C]>[C,C] [F,A,]2 G,2 | [C,G,]6 z2 || %9
w: ~ ~ ~ ~ ~ ~ ~|~ ~ ~ ~ ~ ~|~|
 [C,G,]2 (3[C,C][C,C][C,C] [C,C]2 [C,G,]2 | [D,G,]2 (3[G,,G,][G,,G,][G,,G,] [G,,G,]2 G,>[G,A,] | %11
w: March stead- i- ly on- ward,|march stead- i- ly on, ~ ~|
 [G,B,]>[G,A,] [G,D]>[G,C] [G,B,]2 G,2 | [C,G,]6 z2 | [C,C]2 (3[C,C][C,C][C,C] [C,C]2 [C,G,]2 | %14
w: ~ ~ ~ ~ ~ ~|~|Sing, joy- ful- ly sing, yes,|
 [F,A,]2 (3[F,A,][F,A,][F,A,] [F,A,]2 [F,A,]>[F,C] | [G,C]>[G,C] [G,C]>[G,C] [G,B,]2 G,2 | %16
w: sing, joy- ful- ly sing, * *||
 [C,G,]6 |] %17
w: |
V:4
 x2 | x8 | x8 | x8 | (G,4 G,>F,) x2 | x8 | x4 C2 x2 | x6 G,2 | x8 || x8 | x6 G,3/2 x/ | x6 G,2 | %12
 x8 | x8 | x8 | x6 G,2 | x6 |] %17

